icon/gr/network.svg

<svg xmlns="http://www.w3.org/2000/svg" viewBox="0 0 24 24" height="1em" width="1em">
  <path fill="none" stroke="#000000" stroke-width="2" d="M7.5,7 L7.5,15.5142857 C7.5,19.7571429 13,18.3428571 13,22.1142857 L13,24 M11,10 L7.5,7 L4,10 M16.5,2 L16.5,10.440516 C16.5,14.5083612 13,13.1524128 13,16.7682752 L13,24 M13,5 L16.5,2 L20,5"/>
</svg>

<svg xmlns="http://www.w3.org/2000/svg" width="24" height="24"><path fill="none" stroke="#000" stroke-width="2" d="M7.5 7v8.514c0 4.243 5.5 2.829 5.5 6.6V24m-2-14L7.5 7 4 10m12.5-8v8.44c0 4.068-3.5 2.712-3.5 6.328V24m0-19 3.5-3L20 5"/></svg>
